!!!OTL: Trinkzeremonie (212), S. 463
!!!id: T0396
**kern
*clefG2
*k[f#]
*D:
{8a
=1
8a
8a
8b
8a
=2
8g
8f#
8g}
=3
{8a
=4
8a
8a
8b
8a
=5
8g
8f#
4g}
=6
{8e
8f#
8f#
8f#
=7
8f#
8d
8f#
8f#}
=8
{8a
8a
8b
8a
=9
8g
8b
8a}
==
*-
!!!minrhy: 8
!!!meters: 2/4 ]  ZZ[4
!!!cut: Trinkzeremonie (212), S. 463
!!!reg: Luxemburg
!!!trd: Singendes Volk, Esch-Alzette, 1937 posth.
!!!rhy1: X  XXXX  XXX
!!!rhy2: X  XXXX  XXX_
!!!key: T0396  08  D 2/4 ]  ZZ[4
!!!mod: SECHSTONSKALA DUR ?]  AMBITUS[6
!!!kad: 4435
!!!akz: 54_54_23_54_
!!!fot: 'a__a__b__aw_
!!!for: 'a__av_a__av_
!!!fok: '\__\__/__-__
!! PHRAS[GEMISCHTTAKTIG]
!!!fkt: Trink-, Zechlied
!!!bem: Junglinster, fff Schwester des Verfassers
!! THILL; Mathias
!! PR[18] 2K[4] 2G[4] 3K[7] 3G[7] 4A[4] 4Ü[0] 5A[7] 6K[0] 6G[0]
!! 7K[0] 7G[0] 8A[0] MEHR[0] SI[33] ABS[55] SR[7] SP[25]
!! ST[18] 2k[7] 2g[29] 3k[7] 3g[0] 4d[2] 4ü[0] 5d[4] 6k[0] 6g[0]
!! 7k[0] 7g[0] 8d[0] mehr[0] si[49] dm[-16] sr[36] sp[13]
!! 1F[74] 2F[26] 3F[0] 4F[0] LF[0] 2P[0] 3P[0] 4P[0] TRI[0] DF[2] AB[57]
!! TF[0] U3K[0] U3[0] U4[0] U4Ü[0] U5[7] U6K[0] U6[0] U7K[0] U7[4]
!! N1[21] N2K[0] N2[14] N3K[0] N3[14] N4[11] N4Ü[0] N5[25] N6K[0] N6[4]
!!!n7k: 0] N7[0] O1[0] O2K[0] O2[0] O3K[0] O3[0] HÖ[0
